app/img/orange-square-btn.svg

<svg width="72" height="72" viewBox="0 0 72 72" fill="none" xmlns="http://www.w3.org/2000/svg">
<rect width="72" height="72" fill="#FF5722"/>
<path d="M40.5333 35.9934C40.5333 36.2867 40.4267 36.5534 40.2133 36.7667L33.28 43.4334C32.8533 43.8334 32.1867 43.8334 31.76 43.4067C31.36 42.98 31.36 42.3133 31.7867 41.8867L37.92 35.9934L31.7867 30.1C31.36 29.7 31.36 29.0067 31.76 28.58C32.16 28.1533 32.8533 28.1534 33.28 28.5534L40.2133 35.22C40.4267 35.4333 40.5333 35.7 40.5333 35.9934Z" fill="white"/>
</svg>

<svg width="72" height="72" fill="none" xmlns="http://www.w3.org/2000/svg"><path fill="#FF5722" d="M0 0h72v72H0z"/><path d="M40.533 35.993c0 .294-.106.56-.32.774l-6.933 6.666c-.427.4-1.093.4-1.52-.026-.4-.427-.4-1.094.027-1.52l6.133-5.894-6.133-5.893c-.427-.4-.427-1.093-.027-1.52.4-.427 1.093-.427 1.52-.027l6.933 6.667c.214.213.32.48.32.773z" fill="#fff"/></svg>
